chrome/icons/chevron-right.svg

<svg height="16" viewBox="320 128 416 768" width="16" xmlns="http://www.w3.org/2000/svg" xmlns:xlink="http://www.w3.org/1999/xlink">
  <path d="M320,864C320,855.333 323.167,847.833 329.5,841.5L658.5,512L329.5,182.5C323.167,176.167 320,168.667 320,160C320,151.333 323.167,143.833 329.5,137.5C335.833,131.167 343.333,128 352,128C360.667,128 368.167,131.167 374.5,137.5L726.5,489.5C732.833,495.833 736,503.333 736,512C736,520.667 732.833,528.167 726.5,534.5L374.5,886.5C368.167,892.833 360.667,896 352,896C343.333,896 335.833,892.833 329.5,886.5C323.167,880.167 320,872.667 320,864Z" fill="context-fill" fill-opacity="context-fill-opacity">
  </path>
</svg>

<svg xmlns="http://www.w3.org/2000/svg" width="16" height="16" viewBox="320 128 416 768"><path fill="context-fill" fill-opacity="context-fill-opacity" d="M320 864q0-13 9.5-22.5l329-329.5-329-329.5Q320 173 320 160t9.5-22.5T352 128t22.5 9.5l352 352Q736 499 736 512t-9.5 22.5l-352 352Q365 896 352 896t-22.5-9.5T320 864"/></svg>
